X:1
T:Title
%%score { 1 | ( 2 3 ) }
L:1/8
M:4/4
K:A
V:1 treble nm="Grand Piano"
V:2 bass 
V:3 bass 
V:1
 z4 z2 z[Q:1/4=92] [CE] | [CE]2 [CA]2 [Ec]3 [Fd] | cBAG [A,CEA]3 [Ec] | %3
 [^DB]2 [B,DF]2 [B,EG]3 [CEA] | %4
[M:17/16] [B,EG]-<[B,EG][A,^DF]-<[A,DF][G,E]/-[G,E]/-[G,E]/-[G,E]/-[G,E]/-[G,E]-<[G,E] | %5
[M:1/8] [CE] |[M:4/4] [CE]2 [CA]2 [Ec]3 [Fd] | cBAG [A,CEA]3 [A,CE] | [A,DF]2 [Fd]2 c3 A | %9
[M:7/8] B2 G2 [CA]3 |[M:1/8] [Ec] |[M:4/4] [^Ec]2 [EG]2 [FA]3 [^DB] | [DB]2 [DF]2 [EG]3 [EG] | %13
 [^EG]2 [EG]2 A3 A |[M:17/16] [FB]-<[FB][F=c]-<[Fc][^E^c]/-[Ec]/-[Ec]/-[Ec]/-[Ec]/-[Ec]-<[Ec] | %15
[M:1/8] [CE] |[M:4/4] [CE]2 [CA]2 [Ec]3 [Fd] | cBAG [A,CEA]3 [A,CE] | [A,DF]2 [Fd]2 c3 A | %19
[M:17/16] B-<BG-<G[CA]/-[CA]/-[CA]/-[CA]/-[CA]/-[CA]-<[CA] |] %20
V:2
 z4 z2 z [A,,A,] | [A,,A,]2 [A,,A,]2 [A,,A,]3 [D,A,] | [E,E]2 [E,E]2 z4 | [B,,F,]2 B,,2 E,3 A,, | %4
[M:17/16] B,,-<B,,B,,-<B,,E,/-E,/-E,/-E,/-E,/-E,-<E, |[M:1/8] [A,,A,] | %6
[M:4/4] [A,,A,]2 [A,,A,]2 [A,,A,]3 [D,A,] | [E,E]2 [E,E]2 z4 | D,2 [D,A,]2 [E,A,E]3 [E,A,C] | %9
[M:7/8] [E,G,D]2 [E,B,D]2 [A,,A,]3 |[M:1/8] [A,,A,] |[M:4/4] [C,G,]2 [C,C]2 [F,C]3 [B,,B,] | %12
 [B,,F,]2 [B,,B,]2 [E,B,]3 [E,B,] | [C,C]2 [C,C]2 [F,CF]3 [F,C] | %14
[M:17/16] [D,F,]-<[D,F,][D,F,]-<[D,F,][C,G,]/-[C,G,]/-[C,G,]/-[C,G,]/-[C,G,]/-[C,G,]-<[C,G,] | %15
[M:1/8] [A,,A,] |[M:4/4] [A,,A,]2 [A,,A,]2 [A,,A,]3 [D,A,] | [E,E]2 [E,E]2 z4 | %18
 D,2 [D,A,]2 [E,A,E]3 [E,A,C] | %19
[M:17/16] [E,G,D]-<[E,G,D][E,B,D]-<[E,B,D][A,,A,]/-[A,,A,]/-[A,,A,]/-[A,,A,]/-[A,,A,]/-[A,,A,]-<[A,,A,] |] %20
V:3
 x8 | x8 | A,DCB, A,,3 [A,,A,] | x8 |[M:17/16] x17/2 |[M:1/8] x |[M:4/4] x8 | A,DCB, A,,3 A,, | %8
 x8 |[M:7/8] x7 |[M:1/8] x |[M:4/4] x8 | x8 | x8 |[M:17/16] x17/2 |[M:1/8] x |[M:4/4] x8 | %17
 A,DCB, A,,3 A,, | x8 |[M:17/16] x17/2 |] %20

